X: 14611
T: Gan Ainm
R: polka
M: 2/4
K: Dmajor
D>F AF|DG B2|A>c ec|Ad fa|
D>F AF|DG B2|A>c e/f/e|ce dd:|
A/B/c/d/ ef|gf af|fe/f/ gc/e/|dc BA|
A/B/c/d/ ef|gf af|fe/f/ gc|ed d2:|

